assets/images/fig_3_1_startup_sequence_flowchart.svg

<?xml version="1.0" encoding="UTF-8" standalone="no"?>
<svg
   width="339.99994"
   height="604.24902"
   xml:space="preserve"
   overflow="hidden"
   version="1.1"
   id="svg425"
   xmlns="http://www.w3.org/2000/svg"
   xmlns:svg="http://www.w3.org/2000/svg"><defs
     id="defs429" /><g
     transform="matrix(0.2958193,0,0,0.2958193,-156.66217,-75.199732)"
     id="g423"><rect
       x="1135.5"
       y="1378.5"
       width="495"
       height="165"
       stroke="#000000"
       stroke-width="4.58333"
       stroke-miterlimit="8"
       fill="#ffffff"
       id="rect299" /><text
       font-family="Arial, Arial_MSFontService, sans-serif"
       font-weight="400"
       font-size="37px"
       transform="translate(1191.41,1453)"
       id="text301">RESET E</text><text
       font-family="Arial, Arial_MSFontService, sans-serif"
       font-weight="400"
       font-size="37px"
       transform="translate(1348.96,1453)"
       id="text303">-</text><text
       font-family="Arial, Arial_MSFontService, sans-serif"
       font-weight="400"
       font-size="37px"
       transform="translate(1360.99,1453)"
       id="text305">STOPS AND</text><text
       font-family="Arial, Arial_MSFontService, sans-serif"
       font-weight="400"
       font-size="37px"
       transform="translate(1236.39,1497)"
       id="text307">CLOSE GUARDS</text><path
       d="M 0,-2.29167 H 59.767 V 363.935 H 55.1837 V 0 l 2.2917,2.29167 H 0 Z m 71.2254,361.64267 -13.75,27.5 -13.75,-27.5 z"
       transform="matrix(0,-1,-1,0,1383.35,1378.98)"
       id="path309" /><text
       font-family="Arial, Arial_MSFontService, sans-serif"
       font-weight="700"
       font-size="41px"
       transform="translate(1095.7,1915)"
       id="text311">YES</text><text
       font-family="Arial, Arial_MSFontService, sans-serif"
       font-weight="700"
       font-size="41px"
       transform="translate(846.717,2097)"
       id="text313">NO</text><path
       d="m 783.792,421.5 v 45.967 h -4.584 V 421.5 Z m 11.458,41.383 -13.75,27.5 -13.75,-27.499 z"
       id="path315" /><path
       d="m 783.792,936.5 v 45.967 h -4.584 V 936.5 Z m 11.458,41.383 -13.75,27.497 -13.75,-27.497 z"
       id="path317" /><path
       d="M 2.29146,-0.0305145 2.79111,37.4899 -1.79182,37.5509 -2.29146,0.0305145 Z M 14.1874,32.7544 0.80479,60.435 -13.3102,33.1206 Z"
       transform="matrix(-1,0,0,1,782.305,2069.5)"
       id="path319" /><path
       d="m 616.5,256.5 h 330 v 132 l -165,33 -165,-33 z"
       stroke="#000000"
       stroke-width="4.58333"
       stroke-miterlimit="8"
       fill="#ffffff"
       fill-rule="evenodd"
       id="path321" /><text
       font-family="Arial, Arial_MSFontService, sans-serif"
       font-weight="400"
       font-size="37px"
       transform="translate(690.318,336)"
       id="text323">START UP</text><text
       font-family="Arial, Arial_MSFontService, sans-serif"
       font-weight="700"
       font-size="41px"
       transform="translate(1066.22,1665)"
       id="text325">FLASHING</text><text
       font-family="Arial, Arial_MSFontService, sans-serif"
       font-weight="700"
       font-size="41px"
       transform="translate(811.995,1780)"
       id="text327">SOLID</text><path
       d="M 0,-2.29167 H 356.143 V 45.1762 H 351.56 V 0 l 2.292,2.29167 H 0 Z m 367.602,42.88447 -13.75,27.5 -13.75,-27.5 z"
       transform="matrix(1,0,0,-1,1029.5,1611.59)"
       id="path329" /><path
       d="m 783.791,1403.48 0.563,53.15 -4.583,0.05 -0.563,-53.16 z m 11.972,48.44 -13.458,27.65 -14.041,-27.35 z"
       id="path331" /><path
       d="m 784.792,1743.5 v 40.78 h -4.584 v -40.78 z m 11.458,36.2 -13.75,27.5 -13.75,-27.5 z"
       id="path333" /><path
       d="m 534.5,1613.5 246.5,-130 246.5,130 -246.5,130 z"
       stroke="#000000"
       stroke-width="4.58333"
       stroke-miterlimit="8"
       fill="#ffffff"
       fill-rule="evenodd"
       id="path335" /><text
       font-family="Arial, Arial_MSFontService, sans-serif"
       font-weight="400"
       font-size="41px"
       transform="translate(634.117,1602)"
       id="text337">Machine Enable</text><text
       font-family="Arial, Arial_MSFontService, sans-serif"
       font-weight="400"
       font-size="41px"
       transform="translate(642.138,1652)"
       id="text339">Light Flashing?</text><path
       d="M 534.5,1941 781,1810.5 1027.5,1941 781,2071.5 Z"
       stroke="#000000"
       stroke-width="4.58333"
       stroke-miterlimit="8"
       fill="#ffffff"
       fill-rule="evenodd"
       id="path341" /><text
       font-family="Arial, Arial_MSFontService, sans-serif"
       font-weight="400"
       font-size="41px"
       transform="translate(684.534,1928)"
       id="text343">Any Active</text><text
       font-family="Arial, Arial_MSFontService, sans-serif"
       font-weight="400"
       font-size="41px"
       transform="translate(706.305,1978)"
       id="text345">Alarms?</text><path
       d="m 1252.5,2129.5 h 330 v 132 l -165,33 -165,-33 z"
       stroke="#000000"
       stroke-width="4.58333"
       stroke-miterlimit="8"
       fill="#ffffff"
       fill-rule="evenodd"
       id="path347" /><text
       font-family="Arial, Arial_MSFontService, sans-serif"
       font-weight="400"
       font-size="37px"
       transform="translate(1354.15,2187)"
       id="text349">ALARM</text><text
       font-family="Arial, Arial_MSFontService, sans-serif"
       font-weight="400"
       font-size="37px"
       transform="translate(1292,2231)"
       id="text351">DESCRIPTION</text><path
       d="m 616.5,2129.5 h 330 v 132 l -165,33 -165,-33 z"
       stroke="#000000"
       stroke-width="4.58333"
       stroke-miterlimit="8"
       fill="#ffffff"
       fill-rule="evenodd"
       id="path353" /><text
       font-family="Arial, Arial_MSFontService, sans-serif"
       font-weight="400"
       font-size="37px"
       transform="translate(726.125,2187)"
       id="text355">MODE</text><text
       font-family="Arial, Arial_MSFontService, sans-serif"
       font-weight="400"
       font-size="37px"
       transform="translate(709.51,2231)"
       id="text357">SELECT</text><path
       d="m 1029.5,1936.21 h 391.14 v 170.6 h -4.58 V 1938.5 l 2.29,2.29 H 1029.5 Z m 402.6,166.01 -13.75,27.5 -13.75,-27.5 z"
       id="path359" /><rect
       x="567.5"
       y="771.5"
       width="429"
       height="165"
       stroke="#000000"
       stroke-width="4.58333"
       stroke-miterlimit="8"
       fill="#ffffff"
       id="rect361" /><text
       font-family="Arial, Arial_MSFontService, sans-serif"
       font-weight="400"
       font-size="37px"
       transform="translate(711.802,846)"
       id="text363">POWER</text><text
       font-family="Arial, Arial_MSFontService, sans-serif"
       font-weight="400"
       font-size="37px"
       transform="translate(755.642,890)"
       id="text365">UP</text><path
       d="m 1168.5,518 c 0,-15.188 12.31,-27.5 27.5,-27.5 h 374 c 15.19,0 27.5,12.312 27.5,27.5 v 110 c 0,15.188 -12.31,27.5 -27.5,27.5 h -374 c -15.19,0 -27.5,-12.312 -27.5,-27.5 z"
       stroke="#000000"
       stroke-width="4.58333"
       stroke-miterlimit="8"
       fill="#ffffff"
       fill-rule="evenodd"
       id="path367" /><text
       font-family="Arial, Arial_MSFontService, sans-serif"
       font-style="italic"
       font-weight="400"
       font-size="46px"
       transform="translate(1213.75,562)"
       id="text369">Verify Air Supply</text><text
       font-family="Arial, Arial_MSFontService, sans-serif"
       font-style="italic"
       font-weight="400"
       font-size="46px"
       transform="translate(1324.03,617)"
       id="text371">Is ON</text><path
       d="m 567.5,518 c 0,-15.188 12.312,-27.5 27.5,-27.5 h 374 c 15.188,0 27.5,12.312 27.5,27.5 v 110 c 0,15.188 -12.312,27.5 -27.5,27.5 H 595 c -15.188,0 -27.5,-12.312 -27.5,-27.5 z"
       stroke="#000000"
       stroke-width="4.58333"
       stroke-miterlimit="8"
       fill="#ffffff"
       fill-rule="evenodd"
       id="path373" /><text
       font-family="Arial, Arial_MSFontService, sans-serif"
       font-style="italic"
       font-weight="400"
       font-size="46px"
       transform="translate(722.676,535)"
       id="text375">Verify </text><text
       font-family="Arial, Arial_MSFontService, sans-serif"
       font-style="italic"
       font-weight="400"
       font-size="46px"
       transform="translate(665.682,590)"
       id="text377">Mechanical</text><text
       font-family="Arial, Arial_MSFontService, sans-serif"
       font-style="italic"
       font-weight="400"
       font-size="46px"
       transform="translate(655.37,645)"
       id="text379">Reassembly</text><path
       d="m 996.5,570.208 h 149.43 v 4.584 H 996.5 Z m 144.85,-11.458 27.5,13.75 -27.5,13.75 z"
       id="path381" /><path
       d="m 567.5,1033 c 0,-15.19 12.312,-27.5 27.5,-27.5 h 374 c 15.188,0 27.5,12.31 27.5,27.5 v 110 c 0,15.19 -12.312,27.5 -27.5,27.5 H 595 c -15.188,0 -27.5,-12.31 -27.5,-27.5 z"
       stroke="#000000"
       stroke-width="4.58333"
       stroke-miterlimit="8"
       fill="#ffffff"
       fill-rule="evenodd"
       id="path383" /><text
       font-family="Arial, Arial_MSFontService, sans-serif"
       font-style="italic"
       font-weight="400"
       font-size="46px"
       transform="translate(739.027,1078)"
       id="text385">HMI</text><text
       font-family="Arial, Arial_MSFontService, sans-serif"
       font-style="italic"
       font-weight="400"
       font-size="46px"
       transform="translate(687.167,1133)"
       id="text387">Initializes</text><path
       d="m 783.792,1170.5 v 45 h -4.584 v -45 z m 11.458,40.42 -13.75,27.5 -13.75,-27.5 z"
       id="path389" /><rect
       x="567.5"
       y="1238.5"
       width="429"
       height="165"
       stroke="#000000"
       stroke-width="4.58333"
       stroke-miterlimit="8"
       fill="#ffffff"
       id="rect391" /><text
       font-family="Arial, Arial_MSFontService, sans-serif"
       font-weight="400"
       font-size="37px"
       transform="translate(718.677,1291)"
       id="text393">PRESS</text><text
       font-family="Arial, Arial_MSFontService, sans-serif"
       font-weight="700"
       font-size="37px"
       transform="translate(695.76,1335)"
       id="text395">MACHINE</text><text
       font-family="Arial, Arial_MSFontService, sans-serif"
       font-weight="700"
       font-size="37px"
       transform="translate(705.798,1379)"
       id="text397">ENABLE</text><path
       d="m 1385.14,655.5 v 60.763 H 781.5 l 2.291,-2.291 v 35.554 h -4.583 V 711.68 h 603.642 l -2.29,2.292 V 655.5 Z m -589.89,89.442 -13.75,27.5 -13.75,-27.5 z"
       id="path399" /><path
       d="m 783.792,655.5 v 94.026 h -4.584 V 655.5 Z m 11.458,89.442 -13.75,27.5 -13.75,-27.5 z"
       id="path401" /><path
       d="m 1087.5,312.496 29,-28.996 h 107 l 29,28.996 v 41.008 l -29,28.996 h -107 l -29,-28.996 z"
       stroke="#000000"
       stroke-width="6.875"
       stroke-miterlimit="8"
       fill="#ffffff"
       fill-rule="evenodd"
       id="path403" /><text
       font-family="Arial, Arial_MSFontService, sans-serif"
       font-weight="700"
       font-size="37px"
       transform="translate(1159.66,346)"
       id="text405">1</text><path
       d="m 1090.5,962.496 29,-28.996 h 107 l 29,28.996 v 41.004 l -29,29 h -107 l -29,-29 z"
       stroke="#000000"
       stroke-width="6.875"
       stroke-miterlimit="8"
       fill="#ffffff"
       fill-rule="evenodd"
       id="path407" /><text
       font-family="Arial, Arial_MSFontService, sans-serif"
       font-weight="700"
       font-size="37px"
       transform="translate(1162.22,997)"
       id="text409">2</text><path
       d="m 1510.5,1234.5 29,-29 h 107 l 29,29 v 41 l -29,29 h -107 l -29,-29 z"
       stroke="#000000"
       stroke-width="6.875"
       stroke-miterlimit="8"
       fill="#ffffff"
       fill-rule="evenodd"
       id="path411" /><text
       font-family="Arial, Arial_MSFontService, sans-serif"
       font-weight="700"
       font-size="37px"
       transform="translate(1582.16,1269)"
       id="text413">3</text><path
       d="m 1252.5,1790.5 29,-29 h 107 l 29,29 v 41 l -29,29 h -107 l -29,-29 z"
       stroke="#000000"
       stroke-width="6.875"
       stroke-miterlimit="8"
       fill="#ffffff"
       fill-rule="evenodd"
       id="path415" /><text
       font-family="Arial, Arial_MSFontService, sans-serif"
       font-weight="700"
       font-size="37px"
       transform="translate(1324.66,1824)"
       id="text417">4</text><path
       d="m 1030.5,2190.5 29,-29 h 107 l 29,29 v 41 l -29,29 h -107 l -29,-29 z"
       stroke="#000000"
       stroke-width="6.875"
       stroke-miterlimit="8"
       fill="#ffffff"
       fill-rule="evenodd"
       id="path419" /><text
       font-family="Arial, Arial_MSFontService, sans-serif"
       font-weight="700"
       font-size="37px"
       transform="translate(1102.38,2224)"
       id="text421">5</text></g></svg>

<svg width="1150" height="2044" xmlns="http://www.w3.org/2000/svg" xmlns:xlink="http://www.w3.org/1999/xlink" xml:space="preserve" overflow="hidden"><g transform="translate(-529 -254)"><rect x="1135.5" y="1378.5" width="495" height="165" stroke="#000000" stroke-width="4.58333" stroke-miterlimit="8" fill="#FFFFFF"/><text font-family="Arial,Arial_MSFontService,sans-serif" font-weight="400" font-size="37" transform="matrix(1 0 0 1 1191.41 1453)">RESET E</text><text font-family="Arial,Arial_MSFontService,sans-serif" font-weight="400" font-size="37" transform="matrix(1 0 0 1 1348.96 1453)">-</text><text font-family="Arial,Arial_MSFontService,sans-serif" font-weight="400" font-size="37" transform="matrix(1 0 0 1 1360.99 1453)">STOPS AND</text><text font-family="Arial,Arial_MSFontService,sans-serif" font-weight="400" font-size="37" transform="matrix(1 0 0 1 1236.39 1497)">CLOSE GUARDS</text><path d="M0-2.29167 59.767-2.29167 59.767 363.935 55.1837 363.935 55.1837 0 57.4754 2.29167 0 2.29167ZM71.2254 359.351 57.4754 386.851 43.7254 359.351Z" transform="matrix(-1.83697e-16 -1 -1 1.83697e-16 1383.35 1378.98)"/><text font-family="Arial,Arial_MSFontService,sans-serif" font-weight="700" font-size="41" transform="matrix(1 0 0 1 1095.7 1915)">YES</text><text font-family="Arial,Arial_MSFontService,sans-serif" font-weight="700" font-size="41" transform="matrix(1 0 0 1 846.717 2097)">NO</text><path d="M783.792 421.5 783.792 467.467 779.208 467.467 779.208 421.5ZM795.25 462.883 781.5 490.383 767.75 462.884Z"/><path d="M783.792 936.5 783.792 982.467 779.208 982.467 779.208 936.5ZM795.25 977.883 781.5 1005.38 767.75 977.883Z"/><path d="M2.29146-0.0305145 2.79111 37.4899-1.79182 37.5509-2.29146 0.0305145ZM14.1874 32.7544 0.80479 60.435-13.3102 33.1206Z" transform="matrix(-1 0 0 1 782.305 2069.5)"/><path d="M616.5 256.5 946.5 256.5 946.5 388.5 781.5 421.5 616.5 388.5Z" stroke="#000000" stroke-width="4.58333" stroke-miterlimit="8" fill="#FFFFFF" fill-rule="evenodd"/><text font-family="Arial,Arial_MSFontService,sans-serif" font-weight="400" font-size="37" transform="matrix(1 0 0 1 690.318 336)">START UP</text><text font-family="Arial,Arial_MSFontService,sans-serif" font-weight="700" font-size="41" transform="matrix(1 0 0 1 1066.22 1665)">FLASHING</text><text font-family="Arial,Arial_MSFontService,sans-serif" font-weight="700" font-size="41" transform="matrix(1 0 0 1 811.995 1780)">SOLID</text><path d="M0-2.29167 356.143-2.29167 356.143 45.1762 351.56 45.1762 351.56 0 353.852 2.29167 0 2.29167ZM367.602 40.5928 353.852 68.0928 340.102 40.5928Z" transform="matrix(1 0 0 -1 1029.5 1611.59)"/><path d="M783.791 1403.48 784.354 1456.63 779.771 1456.68 779.208 1403.52ZM795.763 1451.92 782.305 1479.57 768.264 1452.22Z"/><path d="M784.792 1743.5 784.792 1784.28 780.208 1784.28 780.208 1743.5ZM796.25 1779.7 782.5 1807.2 768.75 1779.7Z"/><path d="M534.5 1613.5 781 1483.5 1027.5 1613.5 781 1743.5Z" stroke="#000000" stroke-width="4.58333" stroke-miterlimit="8" fill="#FFFFFF" fill-rule="evenodd"/><text font-family="Arial,Arial_MSFontService,sans-serif" font-weight="400" font-size="41" transform="matrix(1 0 0 1 634.117 1602)">Machine Enable</text><text font-family="Arial,Arial_MSFontService,sans-serif" font-weight="400" font-size="41" transform="matrix(1 0 0 1 642.138 1652)">Light Flashing?</text><path d="M534.5 1941 781 1810.5 1027.5 1941 781 2071.5Z" stroke="#000000" stroke-width="4.58333" stroke-miterlimit="8" fill="#FFFFFF" fill-rule="evenodd"/><text font-family="Arial,Arial_MSFontService,sans-serif" font-weight="400" font-size="41" transform="matrix(1 0 0 1 684.534 1928)">Any Active</text><text font-family="Arial,Arial_MSFontService,sans-serif" font-weight="400" font-size="41" transform="matrix(1 0 0 1 706.305 1978)">Alarms?</text><path d="M1252.5 2129.5 1582.5 2129.5 1582.5 2261.5 1417.5 2294.5 1252.5 2261.5Z" stroke="#000000" stroke-width="4.58333" stroke-miterlimit="8" fill="#FFFFFF" fill-rule="evenodd"/><text font-family="Arial,Arial_MSFontService,sans-serif" font-weight="400" font-size="37" transform="matrix(1 0 0 1 1354.15 2187)">ALARM</text><text font-family="Arial,Arial_MSFontService,sans-serif" font-weight="400" font-size="37" transform="matrix(1 0 0 1 1292 2231)">DESCRIPTION</text><path d="M616.5 2129.5 946.5 2129.5 946.5 2261.5 781.5 2294.5 616.5 2261.5Z" stroke="#000000" stroke-width="4.58333" stroke-miterlimit="8" fill="#FFFFFF" fill-rule="evenodd"/><text font-family="Arial,Arial_MSFontService,sans-serif" font-weight="400" font-size="37" transform="matrix(1 0 0 1 726.125 2187)">MODE</text><text font-family="Arial,Arial_MSFontService,sans-serif" font-weight="400" font-size="37" transform="matrix(1 0 0 1 709.51 2231)">SELECT</text><path d="M1029.5 1936.21 1420.64 1936.21 1420.64 2106.81 1416.06 2106.81 1416.06 1938.5 1418.35 1940.79 1029.5 1940.79ZM1432.1 2102.22 1418.35 2129.72 1404.6 2102.22Z"/><rect x="567.5" y="771.5" width="429" height="165" stroke="#000000" stroke-width="4.58333" stroke-miterlimit="8" fill="#FFFFFF"/><text font-family="Arial,Arial_MSFontService,sans-serif" font-weight="400" font-size="37" transform="matrix(1 0 0 1 711.802 846)">POWER</text><text font-family="Arial,Arial_MSFontService,sans-serif" font-weight="400" font-size="37" transform="matrix(1 0 0 1 755.642 890)">UP</text><path d="M1168.5 518C1168.5 502.812 1180.81 490.5 1196 490.5L1570 490.5C1585.19 490.5 1597.5 502.812 1597.5 518L1597.5 628C1597.5 643.188 1585.19 655.5 1570 655.5L1196 655.5C1180.81 655.5 1168.5 643.188 1168.5 628Z" stroke="#000000" stroke-width="4.58333" stroke-miterlimit="8" fill="#FFFFFF" fill-rule="evenodd"/><text font-family="Arial,Arial_MSFontService,sans-serif" font-style="italic" font-weight="400" font-size="46" transform="matrix(1 0 0 1 1213.75 562)">Verify Air Supply</text><text font-family="Arial,Arial_MSFontService,sans-serif" font-style="italic" font-weight="400" font-size="46" transform="matrix(1 0 0 1 1324.03 617)">Is ON</text><path d="M567.5 518C567.5 502.812 579.812 490.5 595 490.5L969 490.5C984.188 490.5 996.5 502.812 996.5 518L996.5 628C996.5 643.188 984.188 655.5 969 655.5L595 655.5C579.812 655.5 567.5 643.188 567.5 628Z" stroke="#000000" stroke-width="4.58333" stroke-miterlimit="8" fill="#FFFFFF" fill-rule="evenodd"/><text font-family="Arial,Arial_MSFontService,sans-serif" font-style="italic" font-weight="400" font-size="46" transform="matrix(1 0 0 1 722.676 535)">Verify </text><text font-family="Arial,Arial_MSFontService,sans-serif" font-style="italic" font-weight="400" font-size="46" transform="matrix(1 0 0 1 665.682 590)">Mechanical</text><text font-family="Arial,Arial_MSFontService,sans-serif" font-style="italic" font-weight="400" font-size="46" transform="matrix(1 0 0 1 655.37 645)">Reassembly</text><path d="M996.5 570.208 1145.93 570.208 1145.93 574.792 996.5 574.792ZM1141.35 558.75 1168.85 572.5 1141.35 586.25Z"/><path d="M567.5 1033C567.5 1017.81 579.812 1005.5 595 1005.5L969 1005.5C984.188 1005.5 996.5 1017.81 996.5 1033L996.5 1143C996.5 1158.19 984.188 1170.5 969 1170.5L595 1170.5C579.812 1170.5 567.5 1158.19 567.5 1143Z" stroke="#000000" stroke-width="4.58333" stroke-miterlimit="8" fill="#FFFFFF" fill-rule="evenodd"/><text font-family="Arial,Arial_MSFontService,sans-serif" font-style="italic" font-weight="400" font-size="46" transform="matrix(1 0 0 1 739.027 1078)">HMI</text><text font-family="Arial,Arial_MSFontService,sans-serif" font-style="italic" font-weight="400" font-size="46" transform="matrix(1 0 0 1 687.167 1133)">Initializes</text><path d="M783.792 1170.5 783.792 1215.5 779.208 1215.5 779.208 1170.5ZM795.25 1210.92 781.5 1238.42 767.75 1210.92Z"/><rect x="567.5" y="1238.5" width="429" height="165" stroke="#000000" stroke-width="4.58333" stroke-miterlimit="8" fill="#FFFFFF"/><text font-family="Arial,Arial_MSFontService,sans-serif" font-weight="400" font-size="37" transform="matrix(1 0 0 1 718.677 1291)">PRESS</text><text font-family="Arial,Arial_MSFontService,sans-serif" font-weight="700" font-size="37" transform="matrix(1 0 0 1 695.76 1335)">MACHINE</text><text font-family="Arial,Arial_MSFontService,sans-serif" font-weight="700" font-size="37" transform="matrix(1 0 0 1 705.798 1379)">ENABLE</text><path d="M1385.14 655.5 1385.14 716.263 781.5 716.263 783.791 713.972 783.791 749.526 779.208 749.526 779.208 711.68 1382.85 711.68 1380.56 713.972 1380.56 655.5ZM795.25 744.942 781.5 772.442 767.75 744.942Z"/><path d="M783.792 655.5 783.792 749.526 779.208 749.526 779.208 655.5ZM795.25 744.942 781.5 772.442 767.75 744.942Z"/><path d="M1087.5 312.496 1116.5 283.5 1223.5 283.5 1252.5 312.496 1252.5 353.504 1223.5 382.5 1116.5 382.5 1087.5 353.504Z" stroke="#000000" stroke-width="6.875" stroke-miterlimit="8" fill="#FFFFFF" fill-rule="evenodd"/><text font-family="Arial,Arial_MSFontService,sans-serif" font-weight="700" font-size="37" transform="matrix(1 0 0 1 1159.66 346)">1</text><path d="M1090.5 962.496 1119.5 933.5 1226.5 933.5 1255.5 962.496 1255.5 1003.5 1226.5 1032.5 1119.5 1032.5 1090.5 1003.5Z" stroke="#000000" stroke-width="6.875" stroke-miterlimit="8" fill="#FFFFFF" fill-rule="evenodd"/><text font-family="Arial,Arial_MSFontService,sans-serif" font-weight="700" font-size="37" transform="matrix(1 0 0 1 1162.22 997)">2</text><path d="M1510.5 1234.5 1539.5 1205.5 1646.5 1205.5 1675.5 1234.5 1675.5 1275.5 1646.5 1304.5 1539.5 1304.5 1510.5 1275.5Z" stroke="#000000" stroke-width="6.875" stroke-miterlimit="8" fill="#FFFFFF" fill-rule="evenodd"/><text font-family="Arial,Arial_MSFontService,sans-serif" font-weight="700" font-size="37" transform="matrix(1 0 0 1 1582.16 1269)">3</text><path d="M1252.5 1790.5 1281.5 1761.5 1388.5 1761.5 1417.5 1790.5 1417.5 1831.5 1388.5 1860.5 1281.5 1860.5 1252.5 1831.5Z" stroke="#000000" stroke-width="6.875" stroke-miterlimit="8" fill="#FFFFFF" fill-rule="evenodd"/><text font-family="Arial,Arial_MSFontService,sans-serif" font-weight="700" font-size="37" transform="matrix(1 0 0 1 1324.66 1824)">4</text><path d="M1030.5 2190.5 1059.5 2161.5 1166.5 2161.5 1195.5 2190.5 1195.5 2231.5 1166.5 2260.5 1059.5 2260.5 1030.5 2231.5Z" stroke="#000000" stroke-width="6.875" stroke-miterlimit="8" fill="#FFFFFF" fill-rule="evenodd"/><text font-family="Arial,Arial_MSFontService,sans-serif" font-weight="700" font-size="37" transform="matrix(1 0 0 1 1102.38 2224)">5</text></g></svg>
